X:1
T:Little Brown Dog
M:4/4
L:1/4
K:F
 G| F- D C3/2 C/2| C/2 C3/2 C D| F F D F| G3 G| F- D C C| C2 C- D|\
 F2 D F| G3 C| B B c A| F F C C| B2 c A| F3 C| B3/2 B/2 c A| F3/2 F/2 C F|\
 F F D C| C4| F4| D2- D/2D/2 C| C4-| C2 z||
